src/img/icons/icon-burger.svg

<svg width="21" height="21" viewBox="0 0 21 21" fill="none" xmlns="http://www.w3.org/2000/svg">
<path fill-rule="evenodd" clip-rule="evenodd" d="M2.14572 4.88055C0.95908 4.88055 -0.00016 3.92135 -0.00016 2.73502C-0.00016 1.54804 0.95908 0.589176 2.14572 0.589176C3.33258 0.589176 4.2917 1.54804 4.2917 2.73502C4.2917 3.92135 3.33258 4.88055 2.14572 4.88055ZM2.14572 12.7499C0.95908 12.7499 -0.00016 11.7897 -0.00016 10.603C-0.00016 9.41669 0.95908 8.45783 2.14572 8.45783C3.33258 8.45783 4.2917 9.41669 4.2917 10.603C4.2917 11.7897 3.33258 12.7499 2.14572 12.7499ZM-0.00016 18.472C-0.00016 19.659 0.95908 20.6179 2.14572 20.6179C3.33258 20.6179 4.2917 19.659 4.2917 18.472C4.2917 17.2854 3.33258 16.3262 2.14572 16.3262C0.95908 16.3262 -0.00016 17.2854 -0.00016 18.472ZM10.0143 4.88055C8.82758 4.88055 7.86834 3.92135 7.86834 2.73502C7.86834 1.54804 8.82758 0.589176 10.0143 0.589176C11.2011 0.589176 12.1602 1.54804 12.1602 2.73502C12.1602 3.92135 11.2011 4.88055 10.0143 4.88055ZM7.86834 10.603C7.86834 11.7897 8.82758 12.7499 10.0143 12.7499C11.2011 12.7499 12.1602 11.7897 12.1602 10.603C12.1602 9.41669 11.2011 8.45783 10.0143 8.45783C8.82758 8.45783 7.86834 9.41669 7.86834 10.603ZM10.0143 20.6179C8.82758 20.6179 7.86834 19.659 7.86834 18.472C7.86834 17.2854 8.82758 16.3262 10.0143 16.3262C11.2011 16.3262 12.1602 17.2854 12.1602 18.472C12.1602 19.659 11.2011 20.6179 10.0143 20.6179ZM15.7369 2.73502C15.7369 3.92135 16.6962 4.88055 17.8828 4.88055C19.0696 4.88055 20.0288 3.92135 20.0288 2.73502C20.0288 1.54804 19.0696 0.589176 17.8828 0.589176C16.6962 0.589176 15.7369 1.54804 15.7369 2.73502ZM17.8828 12.7499C16.6962 12.7499 15.7369 11.7897 15.7369 10.603C15.7369 9.41669 16.6962 8.45783 17.8828 8.45783C19.0696 8.45783 20.0288 9.41669 20.0288 10.603C20.0288 11.7897 19.0696 12.7499 17.8828 12.7499ZM15.7369 18.472C15.7369 19.659 16.6962 20.6179 17.8828 20.6179C19.0696 20.6179 20.0288 19.659 20.0288 18.472C20.0288 17.2854 19.0696 16.3262 17.8828 16.3262C16.6962 16.3262 15.7369 17.2854 15.7369 18.472Z" fill="white"/>
</svg>

<svg width="21" height="21" fill="none" xmlns="http://www.w3.org/2000/svg"><path fill-rule="evenodd" clip-rule="evenodd" d="M2.146 4.88A2.144 2.144 0 010 2.736C0 1.548.96.589 2.146.589c1.187 0 2.146.959 2.146 2.146 0 1.186-.96 2.146-2.146 2.146zm0 7.87A2.145 2.145 0 010 10.603c0-1.186.96-2.145 2.146-2.145a2.145 2.145 0 110 4.292zM0 18.472c0 1.187.96 2.146 2.146 2.146a2.144 2.144 0 002.146-2.146c0-1.187-.96-2.146-2.146-2.146-1.187 0-2.146.96-2.146 2.146zM10.014 4.881a2.144 2.144 0 01-2.146-2.146c0-1.187.96-2.146 2.146-2.146 1.187 0 2.146.959 2.146 2.146a2.144 2.144 0 01-2.146 2.146zm-2.146 5.722a2.145 2.145 0 104.292 0 2.143 2.143 0 00-2.146-2.145 2.144 2.144 0 00-2.146 2.145zm2.146 10.015a2.144 2.144 0 01-2.146-2.146c0-1.187.96-2.146 2.146-2.146 1.187 0 2.146.96 2.146 2.146a2.144 2.144 0 01-2.146 2.146zm5.723-17.883a2.145 2.145 0 104.292 0c0-1.187-.96-2.146-2.146-2.146a2.144 2.144 0 00-2.146 2.146zm2.146 10.015a2.145 2.145 0 01-2.146-2.147c0-1.186.96-2.145 2.146-2.145a2.145 2.145 0 110 4.292zm-2.146 5.722c0 1.187.96 2.146 2.146 2.146a2.144 2.144 0 002.146-2.146c0-1.187-.96-2.146-2.146-2.146-1.187 0-2.146.96-2.146 2.146z" fill="#fff"/></svg>
